X:1
T:My Shepherd Leads
T:My Shepherd Leads
T:F. A. Clark
T:Mary S. Leonard, 1908
T:Public Domain Courtesy of the Cyber Hymnal™
T:Public Domain Courtesy of the Cyber Hymnal™
C:F. A. Clark
Z:Public Domain
Z:Courtesy of the Cyber Hymnal™
%%score ( 1 2 ) ( 3 4 )
L:1/8
Q:1/4=95
M:6/8
K:D
V:1 treble 
V:2 treble 
V:3 bass 
V:4 bass 
V:1
 FCD FCD | [DFB]3 [A,DF]2 [A,DF] | [DFA]3 [F,A,D]3 | [G,A,C]3- [G,A,C]2 z | G^DE GDE | %5
w: 1.~In- to the val- leys of|bless- ing My|shep- herd|leads; *|Peace is my~spir- it pos- sess-|
w: 2.~In- to the ways that are|wea- ry My|shep- herd|leads; *|Dark tho’ the~skies be and drea-|
w: 3.~In- to the land all im-|mor- tal My|shep- herd|leads; *|Un- to the~glo- ri- ous por-|
 [EGc]3 [EGB]2 [EGB] | [CEA]3 [G,A,CE]3 | ([A,DF-]3 F2) x | [^A,CF][A,CF][A,CF] [FBd][FBd][FBd] | %9
w: ing, My soul|He feeds.|Past- *|ures so green are a- round|
w: ry, He knows|my needs.|Hea- *|vy the load I am bear-|
w: tal My way|He heeds.|Man- *|sions of heav- en- ly splen-|
 [EF^Ac]3 [^A,CF]3 | GGG D2 E | [^A,CF]3- [A,CF]2 z | [DFA][DFA][DFA] [EF^A][EFA][EFA] | %13
w: me, Wa-|ters of life shall flow;|Fair- *|est of flow- ers sur- round|
w: ing, Love|hath my path- way planned;|Trust- *|ing, I’m still for- ward far-|
w: dor Wait|me when I shall come.|Led *|by my shep- herd so ten-|
 [EGc]3 [D^EB]3 | AdF [CE]2 [CF] | D3- [A,D]2 z ||"^Refrain"[Q:1/4=130] A2 ^G2 A2 | [EGc]4 [EGc]2 | %18
w: me, Ev-|er I on- ward go.||||
w: ing, Led|by my shep- herd’s hand.|My shep-|* herd leads|a- long|
w: der Un-|to my Fa- ther’s home.||||
 [EG]4 [EGc]2 | [EGB]6 | G2 c2 B2 | [DFB]4 [DFA]2 | [DF]4 [DFB]2 | [DFA]6 | [Fd]2 [Fd]2 [Fd]2 | %25
w: |||||||
w: the way,|Kept|by His care|I can-|not stray;|In|ten- der love,|
w: |||||||
 [Fd]4 z2 | [Gd]2 [Ge]2 [Gd]2 | [=Fd]4 z2 | A2 c2 B2 | [CE]4 [CA]2 | D6 | [A,D]2 z4 |] %32
w: |||||||
w: to|realms a- bove,|My|shep- herd leads|me home!|||
w: |||||||
V:2
 A,3 A,3 | x6 | x6 | x6 | C3- C3 | x6 | x6 | x3 (DCB,) | x6 | x6 | x6 | x6 | x6 | x6 | x6 | %15
 A,B,^G, x3 || x6 | x6 | x6 | x6 | x6 | x6 | x6 | x6 | x6 | x6 | x6 | x6 | x6 | x6 | A,2 B,2 ^G,2 | %31
 x6 |] %32
V:3
 [D,,D,]3 [A,,,A,,]3 | [D,,D,]3 [A,,,A,,]3 | [F,,F,]3 [D,,D,]3 | [E,,E,]3 [A,,,A,,]2 z | %4
 [A,,,A,,]3 [C,,C,]3 | [E,,E,]3 [A,,A,]3 | [A,,A,]3 [C,,C,]3 | ([D,,D,]3 D,C,B,,) | %8
 [F,,F,]3 [B,,,B,,]3 | [^A,,,^A,,]2 [C,,C,] [F,,F,]3 | G,G,G, D,2 E, | %11
 ([F,,F,][E,,C,][C,,^A,,] [^A,,,F,,]2) z | [D,,D,]3 [C,,C,]2 [F,,F,] | [G,,G,]3 [^G,,^G,]3 | %14
 A,DF, [A,,A,]2 [A,,G,] | (F,G,^E, [D,F,]2) z || A,2 ^G,2 A,2 | [A,,A,]6 | [A,,A,]6 | [A,,A,]6 | %20
 G,2 C2 B,2 | [D,,D,]6 | [D,,D,]6 | [D,,D,]6 | D2 D2 D2 | =C4 z2 | B,2 B,2 B,2 | _B,4 z2 | %28
 A,2 C2 B,2 | A,4 [A,,G,]2 | F,2 G,2 ^E,2 | [D,F,]2 z4 |] %32
V:4
 x6 | x6 | x6 | x6 | x6 | x6 | x6 | x6 | x6 | x6 | x6 | x6 | x6 | x6 | x6 | D,3- x3 || x6 | x6 | %18
 x6 | x6 | x6 | x6 | x6 | x6 | x6 | x6 | x6 | x6 | x6 | x6 | D,6- | x6 |] %32

